X:1
T:Concerto IV C-dur
T:BWV 595
T:J. S. Bach
%%score { ( 1 2 ) | ( 3 5 ) | 4 }
L:1/8
Q:1/4=80
M:4/4
K:C
V:1 treble nm="Organ" snm="Org."
V:2 treble 
V:3 bass 
V:5 bass 
V:4 bass 
V:1
"^Regulier" ce/d/ ce dgGg | ee/f/ gf/e/ Pd2 Gg | e/ G/F/G/ E/G/F/G/ A/ f/e/f/ d/f/e/f/ | %3
 d/ F/E/F/ D/F/E/F/ G/ e/d/e/ B/e/d/e/ | c/ E/D/E/ C/E/D/E/ F/ d/c/d/ A/d/c/d/ | %5
 B/ D/C/D/ B,/D/C/D/ E/ c/B/c/ G/c/B/c/ | Ac- cA ce/d/ ce | dgGg ee/f/ gf/e/ | [Bd]2 x2 GB/A/ GB | %9
 AdDd BB/c/ dc/B/ | A2 Dd B/ D/C/D/ B,/D/C/D/ | E/ c/B/c/ G/c/B/c/ A/ C/B,/C/ A,/C/B,/C/ | %12
 D/ B/A/B/ ^F/B/A/B/ G/ z/ z z2 | z/ A/G/A/ E/A/G/A/ ^F/ z/ z z2 | z/ G/^F/G/ D/G/F/G/ EG- GF | %15
 GB/A/ GB AdDd | BB/c/ dc/B/ A2 z2 | Ac/B/ Ac BeEe | cc/d/ ed/c/ B2 Ee | f4- f/ z/ z z2 | %20
 e4- e/ z/ z z2 | d4- d/ z/ z z2 | c4- c/ z/ z z2 | z/ c/B/A/ G/g/^f/e/ ^d/A/G/e/ ^F/e/F/d/ | %24
 eg/^f/ eg fbBb | gg/a/ ba/g/ ^f2 Bb | g/ e/d/e/ B/e/d/e/ c/ a/g/a/ e/a/g/a/ | %27
 ^f/ d/c/d/ A/d/c/d/ B/ g/=f/g/ d/g/f/g/ | e/ c/B/c/ G/c/B/c/ A/ ^f/e/f/ ^c/f/e/f/ | %29
 ^d/ B/A/B/ ^F/B/A/B/ G/ e/=d/e/ B/e/d/e/ | ce- e^d eg/^f/ eg | ^fbBb gg/a/ ba/g/ | %32
 ^f2 z2 =d=f/e/ df | eaAa ff/g/ ag/f/ | e2 Aa f/ d/=c/d/ A/d/c/d/ | %35
 _B/ g/f/g/ d/g/f/g/ e/ c/B/c/ G/c/B/c/ | A/ f/e/f/ c/f/e/f/ d/ _B/A/B/ F/B/A/B/ | %37
 G/ e/d/e/ B/e/d/e/ ^c/ A/G/A/ E/A/G/A/ | F/ d/c/d/ A/d/c/d/ _B/ A/G/F/ E/D/^C/B,/ | %39
 z/ ^c/B/c/ A/c/B/c/ d/ x/ x x2 | z/ _b/a/b/ g/b/a/b/ e/g/f/g/ e/g/f/g/ | %41
 ^c/e/d/e/ c/e/d/e/ A/B/A/B/ c/d/c/d/ | ^c8- | c/e/^c/e/ A/e/c/e/ A/e/c/e/ A/e/c/e/ | %44
 B/f/d/f/ B/f/d/f/ B/f/d/f/ B/f/d/f/ | ^c/g/e/g/ c/g/e/g/ c/g/e/g/ c/g/e/g/ | %46
 A/g/^c/g/ A/g/c/g/ A/g/c/g/ A/g/c/g/ | A/f/d/f/ A/f/d/f/ A/f/d/f/ A/f/d/f/ | %48
 A/e/d/e/ A/e/d/e/ A/e/^c/e/ A/e/c/e/ | df/e/ df eaAa | ff/g/ ag/f/ e2 A2 | %51
 a/f/a/d/ a/f/a/d/ _bbbb | _b/g/b/e/ b/g/b/e/ aaaa | a/f/a/d/ a/f/a/d/ gggg | %54
 g/e/g/^c/ g/e/g/c/ f/d/f/a/ f/d/f/a/ | _b/g/_a/f/ g/_e/f/d/ g/e/f/d/ e/^c/d/=e/ | %56
 ^c/A/B/^G/ A/ z/ z z4 | z/ a/g/a/ e/a/g/a/ f/f/e/f/ d/f/e/f/ | %58
 g/g/f/g/ d/g/f/g/ e/e/d/e/ c/e/d/e/ | f/f/e/f/ c/f/e/f/ d/d/c/d/ B/d/c/d/ | %60
 e/e/d/e/ B/e/d/e/ c/c/B/c/ A/c/B/c/ | d/d/c/d/ B/c/A/B/ ^G/E/A B,/E/A/G/ | Ac/B/ Ac BeEe | %63
 cc/d/ ed/c/ B2 Ee | f4- f/ z/ z z2 | e4- e/ z/ z z2 | d4- d/ z/ z z2 | %67
 z/ c/B/c/ A/a/g/a/ f/a/d/a/ B/^g/^f/g/ | a4 x/ f/e/f/ d/f/e/f/ | g4 x/ e/d/e/ c/e/d/e/ | %70
 f/g/e/f/ d/e/c/d/ B/G/c/E/ D/c/D/B/ | c/d/e/d/ ce dgGg | ee/f/ gf/e/ d2 Gg | %73
 e/ G/F/G/ E/G/F/G/ B/ f/e/f/ c/f/e/f/ | d/ F/E/F/ D/F/E/F/ G/ e/d/e/ B/e/d/e/ | %75
 c/ E/D/E/ C/E/D/E/ F/ d/c/d/ A/d/c/d/ | B/ D/C/D/ B,/D/C/D/ E/ c/B/c/ G/c/B/c/ | %77
 A/c/A/c/ A/c/A/c/ G/c/G/c/ G/c/G/c/ | B/ g/f/g/ d/g/f/g/ e/c'/b/c'/ g/c'/b/c'/ | %79
 a/c'/b/c'/ d/b/a/b/ c'/a/g/f/ ed | c2 z2 z4 |] %81
V:2
 G z x [Gc] G2 x [Gd] | [Gc]2 x G G2 x [Gd] | [Gc]/ E/D/E/ C/E/D/E/ F/ x7/2 | %3
 x/ D/C/D/ B,/D/C/D/ E/ x7/2 | x8 | x8 | x [FA][FG] x [EG] x2 [Gc] | [GB]2 x [Gd] [Gc]2 z [Gc] | %8
 G/^F/G/A/ B/F/G/D/- D2 x D | [DA]2 x [DA] [DG]2 x [DG] | [D^F]2 x [DA] [DG]/ x/ z x2 | x8 | x8 | %13
 x8 | x4 x [CE] [CD]2 | [B,D] x x [DG] [DF]2 x [DA] | [DG]2 x [DG] ^F2 z2 | %17
 E2 x [EA] [EB]2 x [EB] | [EA]2 x [EA] [E^G]2 x [Ac] | z/ d/c/d/ A/d/c/d/ B/ z/ z z2 | %20
 z/ c/B/c/ G/c/B/c/ A/ z/ z z2 | z/ B/A/B/ ^F/B/A/B/ ^G/ z/ z z2 | z/ A/G/A/ E/A/G/A/ ^F/ z/ z z2 | %23
 x8 | [EB] z z [Be] [B^f]2 x [Bf] | [Be] z z [Be] [B^d]2 x [B^f] | %26
 [Be]/ G/^F/G/ E/G/F/G/ A/ z/ z z2 | z/ ^F/E/F/ D/F/E/F/ G/ x/ x x2 | %28
 z/ E/D/E/ C/E/D/E/ ^F/ x/ x x2 | z/ ^D/^C/D/ B,/D/C/D/ E/ x/ x x2 | z [Ac] [AB]2 [GB] z z [Be] | %31
 [Bd]2 x [B^f] [Be]2 z [Be] | ^d2 z2 x2 x =d | ^c2 z [Ae] [Ad]2 z [Ad] | %34
 [A^c]2 x [Ae] [Ad]/ F/E/F/ D/F/E/F/ | G/ x/ x x2 x/ E/D/E/ C/E/D/E/ | %36
 F/ x/ x x2 x/ D/C/D/ _B,/D/C/D/ | E/ x/ z x2 x4 | x8 | %39
 z/ E/D/E/ ^C/E/D/E/ x/ G/F/E/ D/=C/_B,/A,/ | x8 | x8 | x8 | x8 | x8 | x8 | x8 | x8 | x8 | %49
 A2 x [A^d] c2 x [Ae] | [Ad]2 z [Ad] [A^c]2 x2 | x8 | x8 | x8 | x8 | x8 | x8 | x8 | x8 | x8 | x8 | %61
 x8 | C x x [EA] [E^G]2 x [EB] | [EA]2 z [EA] [E^G]2 z [Ac] | [Ad]/ d/c/d/ A/d/c/d/ B/ z/ z z2 | %65
 z/ c/B/c/ G/c/B/c/ B/ z/ z z2 | z/ B/A/B/ ^F/B/A/B/ ^G/ z/ z z2 | x8 | %68
 z/ e/d/e/ c/e/d/e/ A/A/G/A/ F/A/G/A/ | D/ d/c/d/ B/d/c/d/ G/ G/F/G/ E/G/F/G/ | %70
 A/B/G/A/ F/G/E/F/ DC/B,/ x2 | x2 x [Gc] [GB]2 x [Gd] | [Gc]2 z [Gc] B2 x d | x8 | x8 | x8 | x8 | %77
 x FFF x EEE | D/ x/ x x2 x4 | x4 x2 cB | G2 z2 z4 |] %81
V:3
 EC/D/ E/D/E/C/ B,G,/A,/ B,/A,/B,/G,/ | CC,/D,/ E,/D,/E,/C,/ B,,G,,/A,,/ B,,/A,,/B,,/G,,/ | %2
 C,/ z/ z z2 z/ A,/G,/A,/ F,/A,/G,/A,/ | B,/ z/ z z2 z/ G,/F,/G,/ E,/G,/F,/G,/ | %4
 A,/ C/B,/C/ A,/C/B,/C/ D/ F,/E,/F,/ D,/F,/E,/F,/ | %5
 G,/ B,/A,/B,/ G,/B,/A,/B,/ C/ E,/D,/E,/ C,/E,/D,/E,/ | %6
 F,/G,/F,/E,/ D,/G,/F,/G,/ C,/B,,/C,/D,/ E,/D,/E,/C,/ | %7
 G,/F,/G,/A,/ B,/A,/B,/G,/ C/B,/C/D/ E/D/E/C/ | z4 B,G,/A,/ B,/A,/B,/G,/ | %9
 ^F,D,/E,/ F,/E,/F,/D,/ G,G,,/A,,/ B,,/A,,/B,,/G,,/ | %10
 D,D,,/E,,/ ^F,,/E,,/F,,/D,,/ G,,/B,/A,/B,/ G,/B,/A,/B,/ | %11
 C/ E,/D,/E,/ C,/E,/D,/E,/ ^F,/ A,/G,/A,/ F,/A,/G,/A,/ | %12
 B,/ D,/C,/D,/ B,,/D,/C,/D,/ E,/ G,/^F,/G,/ E,/G,/F,/G,/ | %13
 A,/ C,/B,,/C,/ A,,/C,/B,,/C,/ D,/ ^F,/E,/F,/ D,/F,/E,/F,/ | %14
 G,/ B,,/A,,/B,,/ G,,/B,,/A,,/B,,/ C,/D,/C,/B,,/ A,,/D,/C,/D,/ | %15
 G,,/^F,,/G,,/A,,/ B,,/A,,/B,,/G,,/ D,/^C,/D,/E,/ ^F,/E,/F,/D,/ | %16
 G,/^F,/G,/A,/ B,/A,/B,/G,/ D/C/D/E/ ^F/E/F/G/ | CA,/B,/ C/B,/C/A,/ ^G,E,/^F,/ G,/F,/G,/E,/ | %18
 A,A,,/B,,/ C,/B,,/C,/A,,/ E,/F,/E,/D,/ C,/B,,/C,/A,,/ | D,/F/E/F/ D/F/E/F/ G/ F/B,/F/ B,/F/B,/F/ | %20
 G,/ E/D/E/ C/E/D/E/ F/ E/A,/E/ A,/E/A,/E/ | ^F,/ D/C/D/ B,/D/C/D/ E/ D/^G,/D/ G,/D/G,/D/ | %22
 E,/ C/B,/C/ A,/C/B,/C/ D/ C/^F,/C/ F,/C/F,/C/ | D,/[K:treble] E/D/C/ B,/B/A/G/ ^FE/D/ CB,/A,/ | %24
 G,/B,/E/^F/ G/F/G/E/ ^DB,/^C/ D/C/D/B,/ | %25
 E[K:bass] E,/^F,/ G,/F,/G,/E,/ B,B,,/^C,/ ^D,/C,/=D,/B,,/ | E,/ z/ z z2 z/ C/B,/C/ A,/C/B,/C/ | %27
 D/ z/ z z2 z/ B,/A,/B,/ G,/B,/A,/B,/ | C/ z/ z z2 z/ A,/G,/A,/ ^F,/A,/G,/A,/ | %29
 B,/ z/ z z2 z/ G,/^F,/G,/ E,/G,/F,/G,/ | A,/B,/A,/G,/ ^F,/B,/A,/B,/ E,/^D,/E,/F,/ G,/F,/G,/E,/ | %31
 B,/A,/B,/^C/ ^D/C/D/B,/[K:treble] E/^D/E/^F/ G/F/G/E/ | B/A/c/B/ A/G/^F/4G/4A/ AD G/A/=F/G/ | %33
 A[K:bass] A,/B,/ C/B,/C/A,/ DD,/E,/ F,/E,/F,/D,/ | A,A,,/B,,/ ^C,/B,,/C,/A,,/ D,/ z/ z z2 | %35
 z/ _B,/A,/B,/ G,/B,/A,/B,/ C/ z/ z z2 | z/ A,/G,/A,/ E,/A,/G,/A,/ _B,/ z/ z z2 | %37
 z/ G,/F,/G,/ E,/G,/F,/G,/ A,/^C/B,/C/ A,/C/B,/C/ | D/ F,/E,/F,/ D,/F,/E,/F,/ G,/ z/ z z2 | %39
 A,/ z/ z z2 A,/ z/ z z2 | G,/ z/ z z2[K:treble] z/ _B/A/B/ G/B/A/B/ | %41
 E/G/F/G/ E/G/F/G/ ^C/D/C/D/ E/F/E/F/ | G/_B/A/B/ E/F/E/F/ G/B/A/B/ E/F/E/F/ | %43
 G2 z2 z [^CEG][CEG][CEG] | [DF]2 z2[K:bass] z [A,D][A,D][A,D] | ^C2 z2 z EEE | %46
 A,2 z2 z [E,A,][E,A,][E,A,] | [F,A,]2 z2 z [A,D][A,D][A,D] | [A,E]2 z2 z[K:treble] [EG][EG][EG] | %49
 F2 F/E/F/D/ AA,/B,/ ^C/B,/C/A,/ | D[K:bass] D,/E,/ F,/E,/F,/D,/ A,A,,/B,,/ ^C,/B,,/C,/A,,/ | %51
 D,2 z2 D/_B,/D/G,/ D/B,/D/G,/ | EEEE E/C/E/A,/ E/C/E/A,/ | DDDD D/_B,/D/G,/ D/B,/D/G,/ | %54
 ^CCCC[K:treble] A/F/A/D/ A/F/A/D/ | G2 z2 _B/G/_A/F/ G/E/F/G/ | %56
 E/^C/D/B,/ C/A,/B,/^G,/[K:bass] A,/E,/F,/D,/ E,/^C,/D,/E,/ | %57
 A,, z z2[K:treble] z/ d/c/d/ A/d/c/d/ | B/B/A/B/ G/B/A/B/ c/c/B/c/ G/c/B/c/ | %59
 A/A/G/A/ F/A/G/A/ B/B/A/B/ ^F/B/A/B/ | ^G/G/^F/G/ E/G/F/G/ A/A/=G/A/ E/A/G/A/ | %61
 F/F/E/F/ D/E/C/D/[K:bass] B,>C B,2 | A, A,/B,/ C/B,/C/A,/ EE,/^F,/ ^G,/F,/G,/E,/ | %63
 A,A,,/B,,/ C,/B,,/C,/A,,/ E,/F,/E,/D,/ C,/B,,/C,/A,,/ | D,/F/E/F/ D/F/E/F/ G/ F/B,/F/ B,/F/B,/F/ | %65
 D,/ E/D/E/ C/E/D/E/ F/ E/A,/E/ A,/E/A,/E/ | ^F,/ D/C/D/ B,/D/C/D/ E/ D/^G,/D/ G,/D/G,/D/ | %67
 E,/ E/D/E/ C/D/B,/C/ D/C/D/B,/ E/F/D/E/ | C/C,/B,,/C,/ A,,/C,/B,,/C,/ D,/ z/ z z2 | %69
 z/ B,,/A,,/B,,/ G,,/B,,/A,,/B,,/ C,/ z/ z z2 | z4 z2 A,G,/F,/ | %71
 E,/D,/C,/D,/ E,/D,/E,/C,/ G,/F,/G,/A,/ B,/A,/B,/G,/ | %72
 C/B,/C/D/ E/D/E/C/[K:treble] G/F/G/A/ B/A/B/G/ | %73
 c/E/D/E/ C/E/D/E/ F/[K:bass] A,/G,/A,/ F,/A,/G,/A,/ | %74
 B,/ D/C/D/ B,/D/C/D/ E/ G,/F,/G,/ E,/G,/F,/G,/ | %75
 A,/ C/B,/C/ A,/C/B,/C/ D/ F,/E,/F,/ D,/F,/E,/F,/ | %76
 G,/ B,/A,/B,/ G,/B,/A,/B,/ C/ E,/D,/E,/ C,/E,/D,/E,/ | %77
 F,F,,/G,,/ A,,/G,,/A,,/F,,/ C,/B,,/C,/D,/ E,/D,/E,/C,/ | %78
 G,/F,/G,/A,/ B,/A,/B,/G,/ C/B,/C/D/[K:treble] E/D/E/C/ | F/E/F/D/ G/A/G/F/ E/D/E/F/ GF | %80
 E2 z2 z4 |] %81
V:4
 C,2 z C, G,2 z G,, | C,2 z C,, G,,2 z G, | C,2 z2 F,G,A,F, | B,2 z2 E,F,G,E, | A,2 z2 D,E,F,D, | %5
 G,2 z2 C,D,E,C, | F,D,G,G,, C,2 z C, | G,,2 z G,, C,,2 z C,, | G,,2 z2 G,,2 z G,, | %9
 D,2 z D,, G,,2 z G,, | D,2 z2 G,,2 z2 | C,D,E,C, ^F,2 z2 | B,,C,D,B,, E,2 z2 | %13
 A,,B,,C,A,, D,2 z2 | G,,A,,B,,G,, C,A,,D,D,, | G,,2 z G,, D,2 z D, | G,,2 z G,, D,2 z2 | %17
 C,2 z A,, E,2 z E,, | A,,2 z A,, E,D,C,A,, | D,E,F,D, G,2 z2 | C,D,E,C, F,2 z2 | %21
 B,,C,D,B,, E,2 z2 | A,,B,,C,A,, D,2 z2 | G,,3 A,, B,,C,A,,B,, | E,,2 z E,, B,,2 z B,, | %25
 D,2 z E,, B,,2 z B,, | E,2 z2 A,B,CA, | D2 z2 G,A,B,G, | C2 z2 ^F,G,A,F, | B,2 z2 E,^F,G,E, | %30
 A,^F,B,B,, E,2 z E,, | B,,2 z B,, D,2 z D, | B,2 z2 _B,2 z2 | A,2 z ^C, D,2 z D,, | %34
 A,,2 z A,, D,2 z2 | G,A,_B,G, C2 z2 | F,G,A,F, _B,2 z2 | E,F,G,E, A,2 z2 | D,E,F,D, G,2 z E, | %39
 A,G,F,E, F,2 z D, | G,8- | G,A,_B,A, G,F,E,D, | E,F,G,F, E,D,^C,B,, | A,,2 z2 z A,,A,,A,, | %44
 D,2 z2 z D,D,D, | E,2 z2 z E,E,E, | ^C,2 z2 z A,,A,,A,, | D,2 z2 z D,D,D, | A,2 z2 z A,,A,,A,, | %49
 D,2 z D, A,2 z A,, | D,2 z D,, A,,2 z2 | D,E,F,D, G,A,_B,G, | C,D,E,C, F,G,A,F, | %53
 _B,,C,D,B,, E,F,G,E, | A,,B,,^C,A,, D,E,F,E, | G,,2 z2 G,,2 z2 | A,,2 z2 z4 | z A,^CA, z D,F,D, | %58
 z G,B,G, z C,E,C, | z F,A,F, z B,,D,B,, | z E,^G,E, z A,,C,A,, | D,E,F,D, E,D,E,E,, | %62
 B,,2 z B,, E,2 z E,, | A,,2 z A,, E,D,C,A,, | D,E,F,D, G,2 z2 | C,D,E,C, F,2 z2 | %66
 B,,C,D,B,, E,2 z2 | A,,B,,C,A,, D,B,,E,E,, | A,,2 z A,, D,2 z D, | B,,2 z G,, C,2 z C, | %70
 F,G,A,F, G,A,F,G, | C,2 z C, G,2 z G,, | C,2 z C,, G,,2 z G,, | C,2 z2 F,G,A,F, | %74
 B,2 z2 E,F,G,E, | A,2 z2 D,E,F,D, | G,2 z2 C,D,E,C, | F,2 z F,, C,2 z C, | G,2 z G,, C,2 z C, | %79
 F,D,G,G,, C,F,G,G,, | C,2 z2 z4 |] %81
V:5
 x8 | x8 | x8 | x8 | x8 | x8 | x8 | x8 | x8 | x8 | x8 | x8 | x4 x/ B,/A,/B,/ G,/B,/A,/B,/ | %13
 C/ x/ x x2 x/ A,/G,/A,/ ^F,/A,/G,/A,/ | B,/ x/ x x2 x4 | x8 | x8 | x8 | x8 | x8 | x8 | x8 | x8 | %23
 x/[K:treble] x15/2 | x8 | x[K:bass] x7 | x8 | x8 | x8 | x8 | x8 | x4[K:treble] x4 | x8 | %33
 x[K:bass] x7 | x8 | x8 | x8 | x8 | x8 | x8 | x4[K:treble] x4 | x8 | x8 | x4 z A,A,A, | %44
 A,2 z2[K:bass] z F,F,F, | G,2 z2 z G,G,G, | E,2 z2 z A,,A,,A,, | D,2 z2 z D,D,D, | %48
 A,2 z2 z[K:treble] A,A,A, | DD/E/ x2 x4 | x[K:bass] x7 | x8 | x8 | x8 | x4[K:treble] D2 x2 | x8 | %56
 x4[K:bass] x4 | x3[K:treble] x5 | x8 | x8 | x8 | x4[K:bass] x4 | x8 | x8 | x8 | x8 | x8 | x8 | %68
 x8 | x8 | x8 | x8 | x4[K:treble] x4 | x9/2[K:bass] x7/2 | x8 | x8 | x8 | x8 | x6[K:treble] x2 | %79
 x8 | [G,C]2 z2 z4 |] %81

